outputs/icons/social/groups_sharp.svg

<svg xmlns="http://www.w3.org/2000/svg" width="1200" height="1200" fill="none"><g clip-path="url(#a)"><path fill="#000" d="M600 637.5c81.5 0 153.5 19.5 212 45 54 24 88 78 88 136.5v81H300v-80.5c0-59 34-113 88-136.5 58.5-26 130.5-45.5 212-45.5M200 650c55 0 100-45 100-100s-45-100-100-100-100 45-100 100 45 100 100 100m56.5 55c-18.5-3-37-5-56.5-5-49.5 0-96.5 10.5-139 29-37 16-61 52-61 92.5V900h225v-80.5c0-41.5 11.5-80.5 31.5-114.5m743.5-55c55 0 100-45 100-100s-45-100-100-100-100 45-100 100 45 100 100 100m200 171.5c0-40.5-24-76.5-61-92.5-42.5-18.5-89.5-29-139-29-19.5 0-38 2-56.5 5 20 34 31.5 73 31.5 114.5V900h225zM600 300c83 0 150 67 150 150s-67 150-150 150-150-67-150-150 67-150 150-150"/></g><defs><clipPath id="a"><path fill="#fff" d="M0 0h1200v1200H0z"/></clipPath></defs></svg>

<svg width="1200" height="1200" viewBox="0 0 1200 1200" fill="none" xmlns="http://www.w3.org/2000/svg"><g clip-path="url(#clip0_122_380)"><path d="M600 637.5C681.5 637.5 753.5 657 812 682.5C866 706.5 900 760.5 900 819V900H300V819.5C300 760.5 334 706.5 388 683C446.5 657 518.5 637.5 600 637.5ZM200 650C255 650 300 605 300 550C300 495 255 450 200 450C145 450 100 495 100 550C100 605 145 650 200 650ZM256.5 705C238 702 219.5 700 200 700C150.5 700 103.5 710.5 61 729C24 745 0 781 0 821.5V900H225V819.5C225 778 236.5 739 256.5 705ZM1000 650C1055 650 1100 605 1100 550C1100 495 1055 450 1000 450C945 450 900 495 900 550C900 605 945 650 1000 650ZM1200 821.5C1200 781 1176 745 1139 729C1096.5 710.5 1049.5 700 1000 700C980.5 700 962 702 943.5 705C963.5 739 975 778 975 819.5V900H1200V821.5ZM600 300C683 300 750 367 750 450C750 533 683 600 600 600C517 600 450 533 450 450C450 367 517 300 600 300Z" fill="#1D1E23"/></g><defs><clipPath id="clip0_122_380"><path width="24" fill="white" d="M0 0H1200V1200H0V0z"/></clipPath></defs></svg>
